X:0
T:Maggie Lauder
S:Scots Musical Museum 98
M:4/4
L:1/8
Q:1/4=100
K:A
E|AA  Ac AA  Ac|B>c BA {A}G2B>d  |cA AA A>B Ac|e>f ed {d}c2e>c|
  d>e df c>d ce|B>c BA    G2BF/G/|AA Ac B>c Bd|ce  B>c   A2A2|]
